X: 5649
T: Buttermilk Mary
R: jig
M: 6/8
K: Amajor
c>AE FEC|E>Ac ecA|d>ef edc|c>BB Bed|
c>ea ecA|d>fa ecA|e>dc efg|a>ec A:|
e>aa agf|ecA Ace|f>bb b2a|g>ee efg|
a>ba gag|fgf ecA|d>ef edc|BFG A:|
(cA)F FEC|EAc ecA|def edc|cBB B(ed)|
cea ecA|def edc|edc efg|aec A2:|
eaa agf|ecA Ace|fbb b2 a|gee efg|
aba gag|fgf edc|def edc|BFG A2:|

